temp/img/footer/facebook.svg

<svg width="9" height="19" viewBox="0 0 9 19" fill="none" xmlns="http://www.w3.org/2000/svg">
<path d="M1.7964 19H5.48682V9.49482H7.96351C7.96351 9.49482 8.19543 7.96096 8.30852 6.28385H5.50117V4.0964C5.50117 3.76961 5.90317 3.33065 6.30163 3.33065H8.3125V0H5.5776C1.70562 0 1.7964 3.20177 1.7964 3.67984V6.29493H0V9.49364H1.7964V19Z" fill="#B4EC50"/>
</svg>

<svg width="9" height="19" viewBox="0 0 9 19" fill="none" xmlns="http://www.w3.org/2000/svg"><path d="M1.796 19h3.69V9.495h2.478s.231-1.534.345-3.211H5.5V4.096c0-.326.402-.765.8-.765h2.011V0H5.579C1.706 0 1.796 3.202 1.796 3.68v2.615H0v3.199h1.796V19z" fill="#B4EC50"/></svg>
